X:340
T: ALS DIE PREUSSEN MARSCHIERTEN VOR PRAG
N: F0584
O: Europa, Mitteleuropa, Deutschland
R: Soldaten -, Kriegs -, erzaehlendes Volks - Lied
M: 4/4
L: 1/16
K: G
G2B2 | d4B2G2d2c2A2F2 | G8z2
D2F2G2 | A4B4c4B4 | A8z4
G2B2 | d2c2B2A2G4=F2F2 | E4G4c4z2
c2 | e2d2c2B2A4G4 | F4A4d4z2
D2 | G4B4A4c4 | B4c2e2d4z2
d2 | g2d2e2c2d4c3B | B8z4

@@@ Tune index: 5771
